svg/u2663.svg

<svg viewBox="0 0 128 128" xmlns="http://www.w3.org/2000/svg">
  <path d="M38.25,74.8L7.44,83.6c0,0,5.97,17.52,27.29,17.08S61.43,85.5,61.43,85.5l10.78,4.45 c0,0,3.62,9.7,19.41,11.03c17.5,1.47,25.98-12.48,25.98-12.48S96.92,69.65,93.98,69.65C91.04,69.65,38.25,74.8,38.25,74.8z" fill="#606265"/>
  <path d="M32.22,118.62c0,0-0.29,1.47-0.29,2.65c0,1.18-0.44,2.06,1.32,2.35c1.76,0.29,60.87,0.29,62.34,0.29 s1.51-1.99,1.51-2.72c0-1.44-0.48-2.57-0.48-2.57l-32.35-8.09L32.22,118.62z" fill="#606265"/>
  <path d="M64.42,3.2c-19.41,0-28.2,16.91-27.94,28.38c0.32,14.17,9.41,18.67,8.53,20 c-0.88,1.32-5.96-5.88-19.7-2.79c-10.96,2.46-21.29,11.75-19.7,27.2c1.27,12.32,9.02,21.72,28.23,20.14 c12.5-1.03,17.64-7.35,19.41-9.12s4.37-5.72,5.29-3.82c0.57,1.18-0.01,11.5-0.08,15.03c-0.06,2.92-1.88,5.99-4.33,8.01 c-3.34,2.75-7.85,3.87-10.17,4.59c-4.34,1.33-7.63,1.73-9.33,3.43c-2.06,2.06-2.41,4.38-2.41,4.38h64.4c0,0-1.02-3.12-4.85-5.32 c-4.93-2.83-10.26-3.6-13.49-5.36s-4.95-3.43-5.33-5.64c-0.38-2.21-0.45-16.37-0.46-18.81c-0.01-1.84,1.49-0.84,2.59,1.05 c0.8,1.37,8.31,13.06,24.04,12.62s22.5-9.85,22.35-23.82c-0.15-13.97-9.23-20.63-18.67-22.35c-9.75-1.78-17.06,2.5-17.79,1.47 c-0.74-1.03,7.84-7.25,7.79-20.58C92.76,20.25,84.13,3.2,64.42,3.2z" fill="#464C4F"/>
</svg>

<svg viewBox="0 0 128 128" xmlns="http://www.w3.org/2000/svg">
  <defs/>
  <path d="M38.25,74.8 L7.44,83.6 C7.44,83.6 13.41,101.12 34.73,100.68 C56.05,100.24 61.43,85.5 61.43,85.5 L72.21,89.95 C72.21,89.95 75.83,99.65 91.62,100.98 C109.12,102.45 117.6,88.5 117.6,88.5 C117.6,88.5 96.92,69.65 93.98,69.65 C91.04,69.65 38.25,74.8 38.25,74.8 Z" fill="#606265"/>
  <path d="M32.22,118.62 C32.22,118.62 31.93,120.09 31.93,121.27 C31.93,122.45 31.49,123.33 33.25,123.62 C35.01,123.91 94.12,123.91 95.59,123.91 C97.06,123.91 97.1,121.92 97.1,121.19 C97.1,119.75 96.62,118.62 96.62,118.62 L64.27,110.53 L32.22,118.62 Z" fill="#606265"/>
  <path d="M64.42,3.2 C45.01,3.2 36.22,20.11 36.48,31.58 C36.8,45.75 45.89,50.25 45.01,51.58 C44.13,52.9 39.05,45.7 25.31,48.79 C14.35,51.25 4.02,60.54 5.61,75.99 C6.88,88.31 14.63,97.71 33.84,96.13 C46.34,95.1 51.48,88.78 53.25,87.01 C55.02,85.24 57.62,81.29 58.54,83.19 C59.11,84.37 58.53,94.69 58.46,98.22 C58.4,101.14 56.58,104.21 54.13,106.23 C50.79,108.98 46.28,110.1 43.96,110.82 C39.62,112.15 36.33,112.55 34.63,114.25 C32.57,116.31 32.22,118.63 32.22,118.63 L96.62,118.63 C96.62,118.63 95.6,115.51 91.77,113.31 C86.84,110.48 81.51,109.71 78.28,107.95 C75.05,106.19 73.33,104.52 72.95,102.31 C72.57,100.1 72.5,85.94 72.49,83.5 C72.48,81.66 73.98,82.66 75.08,84.55 C75.88,85.92 83.39,97.61 99.12,97.17 C114.85,96.73 121.62,87.32 121.47,73.35 C121.32,59.38 112.24,52.72 102.8,51 C93.05,49.22 85.74,53.5 85.01,52.47 C84.27,51.44 92.85,45.22 92.8,31.89 C92.76,20.25 84.13,3.2 64.42,3.2 Z" fill="#464C4F"/>
</svg>
